packages/ffe-icons/icons/open/300/sm/specific_gravity.svg

<svg xmlns="http://www.w3.org/2000/svg" height="20" viewBox="0 -960 960 960" width="20"><path d="M315.155-116.001q-24.396 0-42.496-16.05t-21.811-40.027L170.925-808.23q-2-14.632 7.442-25.2 9.442-10.569 24.576-10.569h554.114q15.134 0 24.576 10.569 9.442 10.568 7.442 25.2l-79.923 636.152q-3.711 23.977-21.751 40.027-18.04 16.05-42.354 16.05H315.155Zm-73.001-545.998h135.077q18.846-22 45.567-35t57.4-13q30.68 0 57.202 13 26.523 13 45.369 35h134.839L734-792H226l16.154 130.001Zm238.133 168q33.944 0 57.829-24.172 23.885-24.173 23.885-58.116 0-33.944-24.172-57.829-24.172-23.885-58.116-23.885t-57.829 24.172q-23.885 24.173-23.885 58.116 0 33.944 24.172 57.829 24.172 23.885 58.116 23.885ZM248.846-610.001l53 431.231q.769 4.616 4.231 7.693 3.462 3.077 8.078 3.077h331.69q4.616 0 8.078-3.077 3.462-3.077 4.231-7.693l53-431.231h-103.77q3.107 7.746 4.861 16.527 1.754 8.781 1.754 17.474 0 56.154-38.923 95.076-38.922 38.923-95.076 38.923-56.154 0-95.076-38.923-38.923-38.922-38.923-95.076 0-8.693 1.754-17.474t4.861-16.527h-103.77ZM314.155-168h38.461-6.615 267.998-6.615 38.461-331.69Z"/></svg>

<svg xmlns="http://www.w3.org/2000/svg" height="20" viewBox="0 -960 960 960" width="20"><path d="M315.15-116q-24.39 0-42.49-16.05t-21.81-40.03l-79.93-636.15q-2-14.63 7.45-25.2Q187.81-844 202.94-844h554.12q15.13 0 24.57 10.57 9.45 10.57 7.45 25.2l-79.93 636.15q-3.71 23.98-21.75 40.03T645.05-116h-329.9Zm-73-546h135.08q18.85-22 45.57-35t57.4-13q30.68 0 57.2 13 26.52 13 45.37 35h134.84L734-792H226l16.15 130Zm238.14 168q33.94 0 57.83-24.17Q562-542.34 562-576.29q0-33.94-24.17-57.83Q513.66-658 479.71-658q-33.94 0-57.83 24.17Q398-609.66 398-575.71q0 33.94 24.17 57.83Q446.34-494 480.29-494ZM248.85-610l53 431.23q.77 4.62 4.23 7.69 3.46 3.08 8.07 3.08h331.7q4.61 0 8.07-3.08 3.46-3.07 4.23-7.69l53-431.23H607.38q3.11 7.74 4.87 16.53Q614-584.69 614-576q0 56.15-38.92 95.08Q536.15-442 480-442t-95.08-38.92Q346-519.85 346-576q0-8.69 1.75-17.47 1.76-8.79 4.87-16.53H248.85Zm65.3 442h38.47H346h268-6.62 38.47-331.7Z"/></svg>
